cc-by-sa/knowledge/modules/using_type/lessons/from_type_to_logotype/images/13_construction.svg

<svg xmlns="http://www.w3.org/2000/svg" width="1920" height="1080" fill="none"><g clip-path="url(#a)"><path fill="#1A73E8" d="M409.696 523.605V220.137h82.221v225.429h122.524v78.039H409.696Z"/><path fill="#D2E3FC" d="M817.569 220.137h82.23v194.306c0 23.089-5.492 43.078-16.485 59.984-10.992 16.907-26.329 29.943-45.995 39.108-19.674 9.165-42.538 13.748-68.592 13.748-26.053 0-48.884-4.583-68.491-13.748s-34.877-22.201-45.794-39.108c-10.926-16.906-16.384-36.895-16.384-59.984V220.137h82.229v187.377c0 9.509 2.101 17.895 6.313 25.15 4.202 7.264 9.937 12.969 17.196 17.108 7.258 4.147 15.571 6.208 24.931 6.208 9.36 0 17.908-2.07 25.242-6.208 7.325-4.139 13.094-9.844 17.296-17.108 4.203-7.263 6.313-15.649 6.313-25.15V220.137h-.009Z"/><path fill="#3C4043" d="M1191.24 220.137v303.468h-68.38l-109.5-159.27h-2.03v159.27h-82.229V220.137h70.015l107.464 158.868h2.44V220.137h82.23-.01Z"/><path fill="#D2E3FC" d="M1299.12 523.605h-88.75l100.14-303.468h112.35L1523 523.605h-88.74l-66.35-219.967h-2.45l-66.34 219.967Z"/><path stroke="#FF6D7F" stroke-miterlimit="10" d="M638.049 185v355M719.835 185v355M946.297 527.25H591.543M1026.56 523.605H398M1026.56 445.498H398M818.013 185v355M899.791 185v355"/><path fill="#1A73E8" d="M1292.6 523.606h-82.22l100.47-304.055h82.23L1292.6 523.606Z"/><path fill="#1A73E8" d="M1440.78 523.606H1523l-100.47-304.055h-82.22l100.47 304.055Z"/><path fill="#1A73E8" d="M1400.37 304.015v-82.286h-50.9v82.286h50.9ZM817.745 220.145v176.159c0 26.943-21.901 48.859-48.825 48.859-26.924 0-48.825-21.916-48.825-48.859V220.145h-82.046v176.159c0 72.325 58.596 130.962 130.871 130.962s130.871-58.637 130.871-130.962V220.145h-82.046Z"/><path stroke="#FF6D7F" stroke-miterlimit="10" stroke-width="3" d="M1108.47 401.65c12.41 0 22.47-10.068 22.47-22.486 0-12.419-10.06-22.486-22.47-22.486-12.41 0-22.47 10.067-22.47 22.486 0 12.418 10.06 22.486 22.47 22.486ZM1366.69 330.698c12.41 0 22.47-10.067 22.47-22.485 0-12.419-10.06-22.486-22.47-22.486-12.41 0-22.47 10.067-22.47 22.486 0 12.418 10.06 22.485 22.47 22.485Z"/></g><g fill="#1A73E8" clip-path="url(#b)"><path d="M408 860.293V553h83.378v228.27h124.236v79.023H408ZM1192.61 553v307.293h-69.34l-111.03-161.277h-2.06v161.277h-83.378V553h70.993l108.965 160.87h2.48V553h83.38-.01ZM1295.38 860.293h-83.37L1313.63 553H1397l-101.62 307.293Z"/><path d="M1445.62 860.293H1529L1427.38 553H1344l101.62 307.293Z"/><path d="M1396.31 636.324V553h-51.61v83.324h51.61ZM813.882 553.008v178.379c0 27.283-22.207 49.475-49.507 49.475-27.301 0-49.508-22.192-49.508-49.475V553.008h-83.192v178.379c0 73.237 59.414 132.612 132.7 132.612 73.285 0 132.699-59.375 132.699-132.612V553.008h-83.192Z"/></g><defs><clipPath id="a"><path fill="#fff" d="M398 185h1125v355H398z"/></clipPath><clipPath id="b"><path fill="#fff" d="M408 553h1121v311H408z"/></clipPath></defs></svg>

<svg width="1920" height="1080" viewBox="0 0 1920 1080" fill="none" xmlns="http://www.w3.org/2000/svg">
<g clip-path="url(#clip0_3303_16392)">
<path d="M409.696 523.605V220.137H491.917V445.566H614.441V523.605H409.696V523.605Z" fill="#1A73E8"/>
<path d="M817.569 220.137H899.799V414.443C899.799 437.532 894.307 457.521 883.314 474.427C872.322 491.334 856.985 504.37 837.319 513.535C817.645 522.7 794.781 527.283 768.727 527.283C742.674 527.283 719.843 522.7 700.236 513.535C680.629 504.37 665.359 491.334 654.442 474.427C643.516 457.521 638.058 437.532 638.058 414.443V220.137H720.287V407.514C720.287 417.023 722.388 425.409 726.6 432.664C730.802 439.928 736.537 445.633 743.796 449.772C751.054 453.919 759.367 455.98 768.727 455.98C778.087 455.98 786.635 453.91 793.969 449.772C801.294 445.633 807.063 439.928 811.265 432.664C815.468 425.401 817.578 417.015 817.578 407.514V220.137H817.569Z" fill="#D2E3FC"/>
<path d="M1191.24 220.137V523.605H1122.86L1013.36 364.335H1011.33V523.605H929.101V220.137H999.116L1106.58 379.005H1109.02V220.137H1191.25H1191.24Z" fill="#3C4043"/>
<path d="M1299.12 523.605H1210.37L1310.51 220.137H1422.86L1523 523.605H1434.26L1367.91 303.638H1365.46L1299.12 523.605V523.605Z" fill="#D2E3FC"/>
<path d="M638.049 185V540" stroke="#FF6D7F" stroke-miterlimit="10"/>
<path d="M719.835 185V540" stroke="#FF6D7F" stroke-miterlimit="10"/>
<path d="M946.297 527.25H591.543" stroke="#FF6D7F" stroke-miterlimit="10"/>
<path d="M1026.56 523.605H398" stroke="#FF6D7F" stroke-miterlimit="10"/>
<path d="M1026.56 445.498H398" stroke="#FF6D7F" stroke-miterlimit="10"/>
<path d="M818.013 185V540" stroke="#FF6D7F" stroke-miterlimit="10"/>
<path d="M899.791 185V540" stroke="#FF6D7F" stroke-miterlimit="10"/>
<path d="M1292.6 523.606H1210.38L1310.85 219.551H1393.08L1292.6 523.606Z" fill="#1A73E8"/>
<path d="M1440.78 523.606H1523L1422.53 219.551H1340.31L1440.78 523.606Z" fill="#1A73E8"/>
<path d="M1400.37 304.015V221.729H1349.47V304.015H1400.37Z" fill="#1A73E8"/>
<path d="M817.745 220.145V396.304C817.745 423.247 795.844 445.163 768.92 445.163C741.996 445.163 720.095 423.247 720.095 396.304V220.145H638.049V396.304C638.049 468.629 696.645 527.266 768.92 527.266C841.195 527.266 899.791 468.629 899.791 396.304V220.145H817.745Z" fill="#1A73E8"/>
<path d="M1108.47 401.65C1120.88 401.65 1130.94 391.582 1130.94 379.164C1130.94 366.745 1120.88 356.678 1108.47 356.678C1096.06 356.678 1086 366.745 1086 379.164C1086 391.582 1096.06 401.65 1108.47 401.65Z" stroke="#FF6D7F" stroke-width="3" stroke-miterlimit="10"/>
<path d="M1366.69 330.698C1379.1 330.698 1389.16 320.631 1389.16 308.213C1389.16 295.794 1379.1 285.727 1366.69 285.727C1354.28 285.727 1344.22 295.794 1344.22 308.213C1344.22 320.631 1354.28 330.698 1366.69 330.698Z" stroke="#FF6D7F" stroke-width="3" stroke-miterlimit="10"/>
</g>
<g clip-path="url(#clip1_3303_16392)">
<path d="M408 860.293V553H491.378V781.27H615.614V860.293H408Z" fill="#1A73E8"/>
<path d="M1192.61 553V860.293H1123.27L1012.24 699.016H1010.18V860.293H926.802V553H997.795L1106.76 713.87H1109.24V553H1192.62H1192.61Z" fill="#1A73E8"/>
<path d="M1295.38 860.293H1212.01L1313.63 553H1397L1295.38 860.293Z" fill="#1A73E8"/>
<path d="M1445.62 860.293H1529L1427.38 553H1344L1445.62 860.293Z" fill="#1A73E8"/>
<path d="M1396.31 636.324V553H1344.7V636.324H1396.31Z" fill="#1A73E8"/>
<path d="M813.882 553.008V731.387C813.882 758.67 791.675 780.862 764.375 780.862C737.074 780.862 714.867 758.67 714.867 731.387V553.008H631.675V731.387C631.675 804.624 691.089 863.999 764.375 863.999C837.66 863.999 897.074 804.624 897.074 731.387V553.008H813.882Z" fill="#1A73E8"/>
</g>
<defs>
<clipPath id="clip0_3303_16392">
<rect width="1125" height="355" fill="white" transform="translate(398 185)"/>
</clipPath>
<clipPath id="clip1_3303_16392">
<rect width="1121" height="311" fill="white" transform="translate(408 553)"/>
</clipPath>
</defs>
</svg>
